X:3335
T:Manou's Scottische
C:La Chavannee
M:4/4
O:France
Q:1/8=350
R:Schottische
Z:Richard Robinson 
%%TUNEURL: http://www.leeds.ac.uk/music/Info/RRTuneBk/gettune/00000bc1.html
%%ID:00000bc1
K:G
GFGB AGAc | B2 F4 GA |\
B2B2 cBcA | B8 |\
GFGB AGAc | B2F4 GA |\
B2 AG FGAB | E8 ::
e2 dc Bcde | ABcd B4 |\
c2 BA F3c | BAFA G2 E2 |\
e2 dc Bcde | ABcd B4 |\
c2 BA F3c | BAFG E4 :|
